img/instagram-icon.svg

<svg width="30" height="35" viewBox="0 0 30 35" fill="none" xmlns="http://www.w3.org/2000/svg">
<path opacity="0.5" d="M8.17949 0C3.66278 0 0 4.3194 0 9.64583V25.0791C0 30.4056 3.66278 34.725 8.17949 34.725H21.2667C25.7834 34.725 29.4462 30.4056 29.4462 25.0791V9.64583C29.4462 4.3194 25.7834 0 21.2667 0H8.17949ZM24.5385 3.85833C25.4415 3.85833 26.1744 4.7226 26.1744 5.7875C26.1744 6.8524 25.4415 7.71666 24.5385 7.71666C23.6355 7.71666 22.9026 6.8524 22.9026 5.7875C22.9026 4.7226 23.6355 3.85833 24.5385 3.85833ZM14.7231 7.71666C19.2398 7.71666 22.9026 12.0361 22.9026 17.3625C22.9026 22.6889 19.2398 27.0083 14.7231 27.0083C10.2064 27.0083 6.54359 22.6889 6.54359 17.3625C6.54359 12.0361 10.2064 7.71666 14.7231 7.71666ZM14.7231 11.575C13.4215 11.575 12.1732 12.1847 11.2528 13.2701C10.3324 14.3555 9.81539 15.8275 9.81539 17.3625C9.81539 18.8974 10.3324 20.3695 11.2528 21.4549C12.1732 22.5402 13.4215 23.15 14.7231 23.15C16.0247 23.15 17.273 22.5402 18.1933 21.4549C19.1137 20.3695 19.6308 18.8974 19.6308 17.3625C19.6308 15.8275 19.1137 14.3555 18.1933 13.2701C17.273 12.1847 16.0247 11.575 14.7231 11.575Z" fill="white"/>
</svg>

<svg width="30" height="35" fill="none" xmlns="http://www.w3.org/2000/svg"><path opacity=".5" d="M8.18 0C3.662 0 0 4.32 0 9.646v15.433c0 5.327 3.663 9.646 8.18 9.646h13.087c4.516 0 8.18-4.32 8.18-9.646V9.646c0-5.327-3.664-9.646-8.18-9.646H8.179zm16.358 3.858c.904 0 1.636.865 1.636 1.93 0 1.064-.732 1.929-1.636 1.929-.902 0-1.635-.865-1.635-1.93 0-1.064.733-1.929 1.636-1.929zm-9.815 3.859c4.517 0 8.18 4.32 8.18 9.646 0 5.326-3.663 9.645-8.18 9.645-4.517 0-8.18-4.32-8.18-9.645 0-5.327 3.663-9.646 8.18-9.646zm0 3.858c-1.302 0-2.55.61-3.47 1.695-.92 1.085-1.438 2.558-1.438 4.093 0 1.534.517 3.006 1.438 4.092.92 1.085 2.168 1.695 3.47 1.695s2.55-.61 3.47-1.695c.92-1.085 1.438-2.558 1.438-4.092 0-1.535-.517-3.008-1.438-4.093-.92-1.085-2.168-1.695-3.47-1.695z" fill="#fff"/></svg>
